packages/core/src/svgs/tokens/mono/DCR.svg

<svg width="24" height="24" viewBox="0 0 24 24" fill="none" xmlns="http://www.w3.org/2000/svg">
<path d="M10.7969 13.8156H15.7438C17.5125 13.8043 19.0738 12.3769 19.0675 10.5737C19.0738 8.76999 17.5131 7.01125 15.7438 6.99999H14.1656L10.7969 4.5H15.7438C17.1963 4.505 18.6024 4.99624 19.7213 5.89125C20.8315 6.77237 21.5948 8.01722 21.8768 9.40629C22.16 10.7908 21.9369 12.2309 21.2481 13.465C20.5581 14.7062 19.4438 15.6781 18.0938 16.2149L22.0001 19.5H17.5231L10.7969 13.8156Z" fill="white"/>
<path d="M8.26748 10.125H13.1924L6.47686 4.5H2L5.90624 7.78499C4.55874 8.32123 3.44561 9.29123 2.75625 10.5307C1.34499 13.0655 2.025 16.303 4.27998 18.1074C5.41349 19.0091 6.81911 19.5 8.26748 19.5H13.2031L9.83434 17H8.26748C6.01936 16.9925 4.26625 14.3457 5.18249 12.1894C5.68061 11.0169 6.98061 10.1293 8.26748 10.125Z" fill="white"/>
</svg>

<svg xmlns="http://www.w3.org/2000/svg" width="24" height="24" fill="none" viewBox="0 0 24 24">
    <path fill="#fff" d="M10.797 13.816h4.947c1.768-.012 3.33-1.44 3.323-3.242C19.075 8.77 17.514 7.01 15.744 7h-1.578l-3.37-2.5h4.948a6.4 6.4 0 0 1 3.977 1.391 6 6 0 0 1 2.156 3.515 5.9 5.9 0 0 1-.629 4.059 6.23 6.23 0 0 1-3.154 2.75L22 19.5h-4.477z"/>
    <path fill="#fff" d="M8.267 10.125h4.925L6.477 4.5H2l3.906 3.285a6.23 6.23 0 0 0-3.15 2.746c-1.411 2.534-.731 5.772 1.524 7.576A6.4 6.4 0 0 0 8.267 19.5h4.936L9.834 17H8.267c-2.248-.008-4-2.654-3.085-4.81.499-1.173 1.799-2.06 3.085-2.065"/>
</svg>
